SVG-Logos/Hardware/xilinx_inc.svg

<svg width="200" height="200" viewBox="0 0 200 200" fill="none" xmlns="http://www.w3.org/2000/svg">
<path d="M50.1458 105.703H42.9844L33.0687 123.526L23.153 105.815L23.0428 105.703H15.8814L29.5431 129.207L15 153.936H22.0512L33.0687 134.776L43.976 153.936H51.1374L36.3739 129.207L50.1458 105.703Z" fill="black"/>
<path d="M60.0614 105.703H53.8916V153.936H60.0614V105.703Z" fill="black"/>
<path d="M73.6132 105.703H67.3333V153.936H92.8939V148.143H73.6132V105.703Z" fill="black"/>
<path d="M103.25 105.703H97.0801V153.936H103.25V105.703Z" fill="black"/>
<path d="M139.939 141.794L116.361 105.815L116.251 105.703H110.522V153.936H116.802V117.733L140.379 153.824L140.49 153.936H146.108V105.703H139.939V141.794Z" fill="black"/>
<path d="M170.237 129.207L183.788 106.149L184.008 105.703H176.847L166.931 123.526L157.016 105.815L156.905 105.703H149.744L163.406 129.207L148.863 153.936H155.914L166.931 134.776L177.839 153.936H185L170.237 129.207Z" fill="black"/>
<path d="M27.4496 78.5237H42.6538L45.5183 85.43H55.4341L39.7892 49.7848H29.4328L15.2202 85.43H25.0258L27.4496 78.5237ZM29.8735 71.8403L34.611 59.253L39.7892 71.8403H29.8735Z" fill="black"/>
<path d="M77.5793 62.5948L66.5618 49.7848H58.6292V85.43H67.8839V63.9315L76.808 74.5136H78.4607L87.3848 63.9315V85.43H96.6395V49.7848H88.7069L77.5793 62.5948Z" fill="black"/>
<path d="M137.735 67.6073C137.735 56.691 130.133 49.6733 118.234 49.6733H102.699V85.3185H117.353C130.243 85.4299 137.735 78.9692 137.735 67.6073ZM128.26 67.6073C128.26 77.6325 119.777 78.4123 117.243 78.4123H111.844V56.691H117.132C124.184 56.691 128.26 60.7011 128.26 67.6073Z" fill="black"/>
<path d="M172.33 58.5847V76.6301L183.788 88.2147V47H143.133L154.592 58.5847H172.33Z" fill="black"/>
<path d="M143.133 71.8404V88.1035H159.329L171.118 76.1846H154.922V59.9215L143.133 71.8404Z" fill="black"/>
</svg>

<svg xmlns="http://www.w3.org/2000/svg" fill="none" viewBox="0 0 200 200"><path fill="#000" d="M50.146 105.703h-7.162l-9.915 17.823-9.916-17.711-.11-.112H15.88l13.662 23.504L15 153.936h7.051l11.018-19.16 10.907 19.16h7.161l-14.763-24.729 13.772-23.504ZM60.061 105.703h-6.17v48.233h6.17v-48.233ZM73.613 105.703h-6.28v48.233h25.56v-5.793h-19.28v-42.44ZM103.25 105.703h-6.17v48.233h6.17v-48.233ZM139.939 141.794l-23.578-35.979-.11-.112h-5.729v48.233h6.28v-36.203l23.577 36.091.111.112h5.618v-48.233h-6.169v36.091ZM170.237 129.207l13.551-23.058.22-.446h-7.161l-9.916 17.823-9.915-17.711-.111-.112h-7.161l13.662 23.504-14.543 24.729h7.051l11.017-19.16 10.908 19.16H185l-14.763-24.729ZM27.45 78.524h15.204l2.864 6.906h9.916L39.79 49.785H29.433L15.22 85.43h9.806l2.424-6.906Zm2.424-6.684 4.737-12.587 5.178 12.587h-9.916ZM77.58 62.595l-11.018-12.81h-7.933V85.43h9.255V63.931l8.924 10.583h1.653l8.924-10.582V85.43h9.254V49.785h-7.932l-11.128 12.81ZM137.735 67.607c0-10.916-7.602-17.934-19.501-17.934h-15.535v35.645h14.654c12.89.112 20.382-6.349 20.382-17.71Zm-9.475 0c0 10.025-8.483 10.805-11.017 10.805h-5.399V56.691h5.288c7.052 0 11.128 4.01 11.128 10.916ZM172.33 58.585V76.63l11.458 11.585V47h-40.655l11.459 11.585h17.738ZM143.133 71.84v16.263h16.196l11.789-11.918h-16.196V59.92l-11.789 11.92Z"/></svg>
